img/svg/twitter-hovered.svg

<svg width="28" height="22" viewBox="0 0 28 22" fill="none" xmlns="http://www.w3.org/2000/svg">
<path d="M27.333 2.83998C26.333 3.33298 25.333 3.50698 24.16 3.66698C25.333 2.99998 26.16 1.99998 26.493 0.666984C25.488 1.27498 24.317 1.73798 23.07 1.98898L23 2.00098C21.969 0.986984 20.56 0.354984 19.004 0.333984H19C16.16 0.333984 13.667 2.84098 13.667 5.84098C13.667 6.33398 13.667 6.66798 13.84 7.00098C9.26203 6.82298 5.22103 4.66398 2.52903 1.36198L2.50703 1.33398C2.08203 2.05998 1.83103 2.93198 1.83103 3.86298C1.83103 3.97198 1.83403 4.08098 1.84103 4.18898L1.84003 4.17398C1.87403 6.05198 2.84903 7.69498 4.31303 8.65498L4.33403 8.66798C3.49403 8.66798 2.66703 8.33498 1.82703 8.00098C1.82703 10.668 3.66703 12.841 6.16003 13.334C5.66703 13.507 5.16003 13.507 4.66703 13.507C4.33403 13.507 4.00003 13.507 3.66703 13.334C4.33403 15.507 6.33403 17.174 8.84003 17.174C7.04003 18.629 4.72403 19.509 2.20303 19.509C2.13203 19.509 2.06103 19.508 1.99003 19.507H2.00103H0.66803C3.03303 21.016 5.90403 21.936 8.98403 22H9.00103C19.001 22 24.508 13.667 24.508 6.49298V5.82598C25.655 5.03598 26.601 4.03898 27.311 2.88198L27.335 2.83998H27.333Z" fill="#E06733"/>
</svg>

<svg xmlns="http://www.w3.org/2000/svg" width="28" height="22" fill="none"><path fill="#E06733" d="M27.333 2.84c-1 .493-2 .667-3.173.827 1.173-.667 2-1.667 2.333-3a10.756 10.756 0 0 1-3.423 1.322l-.07.012A5.795 5.795 0 0 0 19.004.334H19c-2.84 0-5.333 2.507-5.333 5.507 0 .493 0 .827.173 1.16A15.317 15.317 0 0 1 2.529 1.362l-.022-.028a5.012 5.012 0 0 0-.666 2.855l-.001-.015a5.466 5.466 0 0 0 2.473 4.481l.021.013c-.84 0-1.667-.333-2.507-.667 0 2.667 1.84 4.84 4.333 5.333-.493.173-1 .173-1.493.173-.333 0-.667 0-1-.173.667 2.173 2.667 3.84 5.173 3.84a10.535 10.535 0 0 1-6.637 2.335l-.213-.002h.011H.668C3.033 21.016 5.904 21.936 8.984 22h.017c10 0 15.507-8.333 15.507-15.507v-.667a9.777 9.777 0 0 0 2.803-2.944l.024-.042h-.002Z"/></svg>
